logo.svg

<svg height="400" viewBox="0 0 400 400" width="400" xmlns="http://www.w3.org/2000/svg"><g fill-rule="evenodd"><path d="m26 26v350h350v-350zm-18-18h386v386h-386z" fill-rule="nonzero"/><path d="m58.648 110.08h12.672v-20.16h-12.672v-7.92h22.032v28.08h13.32v7.92h-35.352zm10.944-37.872c0-1.4880074.5519945-2.7599947 1.656-3.816s2.6399902-1.584 4.608-1.584c2.0160101 0 3.623994.5279947 4.824 1.584s1.8 2.3279926 1.8 3.816c0 1.5360077-.599994 2.7959951-1.8 3.78s-2.8079899 1.476-4.824 1.476c-1.9680098 0-3.5039945-.4919951-4.608-1.476s-1.656-2.2439923-1.656-3.78z"/><path d="m184.44 67.6h11.952v38.304c0 2.928015.491995 4.991994 1.476 6.192s2.43599 1.8 4.356 1.8c1.344007 0 2.711993-.263997 4.104-.792s2.663994-1.271995 3.816-2.232l2.592 3.816c-.768004.672003-1.607995 1.271997-2.52 1.8s-1.847995.971998-2.808 1.332-1.919995.635999-2.88.828-1.847996.288-2.664.288c-1.776009 0-3.359993-.227998-4.752-.684s-2.555995-1.187995-3.492-2.196-1.643998-2.339992-2.124-3.996-.72-3.707988-.72-6.156v-33.48h-6.336z"/><path d="m326.792 112.456h2.736l8.928-30.456h5.832l-10.008 32.328c-.528003 1.680008-1.067997 3.587989-1.62 5.724s-1.331995 4.139991-2.34 6.012-2.375991 3.455994-4.104 4.752-3.983986 1.944-6.768 1.944c-.624003 0-1.283997-.071999-1.98-.216s-1.379997-.323999-2.052-.54-1.295997-.467999-1.872-.756-1.007999-.575999-1.296-.864l2.016-5.184c.288001.240001.683997.479999 1.188.72s1.055997.443999 1.656.612 1.187997.311999 1.764.432 1.055998.18 1.44.18c3.600018 0 6.047994-3.04797 7.344-9.144h-4.824l-15.12-36h6.48z"/><path d="m62.176 192.808c2.0640103-1.200006 4.391987-2.063997 6.984-2.592s5.1359875-.792 7.632-.792c2.4480122 0 4.4519922.383996 6.012 1.152s2.7839956 1.763994 3.672 2.988 1.4879984 2.615992 1.8 4.176.468 3.131992.468 4.716c0 1.824009-.0479995 3.76799-.144 5.832s-.1679998 4.12799-.216 6.192c0 2.400012.1439986 4.679989.432 6.84h4.824v4.68h-9.576l-.648-5.4h-.36c-.2880014.432002-.7199971.983997-1.296 1.656s-1.3319953 1.331997-2.268 1.98-2.0759933 1.211998-3.42 1.692-2.9279909.72-4.752.72c-3.5520178 0-6.3599897-.911991-8.424-2.736s-3.096-4.319984-3.096-7.488c0-2.448012.5399946-4.487992 1.62-6.12s2.6279899-2.879996 4.644-3.744 4.4519857-1.367999 7.308-1.512 6.0599822.047997 9.612.576c.2400012-2.208011.2760008-4.043993.108-5.508s-.551997-2.627996-1.152-3.492-1.4399946-1.475998-2.52-1.836-2.4119921-.54-3.996-.54c-2.1600108 0-4.2239902.299997-6.192.9s-3.7199923 1.211997-5.256 1.836zm10.584 29.016c1.3440067 0 2.5919942-.215998 3.744-.648s2.1599957-.983997 3.024-1.656 1.5839971-1.403996 2.16-2.196 1.0079986-1.547996 1.296-2.268v-5.04c-2.4960125-.432002-4.7999894-.648-6.912-.648s-3.9359923.227998-5.472.684-2.7359957 1.163995-3.6 2.124-1.296 2.207992-1.296 3.744c0 1.584008.5399946 2.963994 1.62 4.14s2.8919873 1.764 5.436 1.764z"/><path d="m179.4 175.6h15.264v28.728h2.16l11.808-14.328h11.016l-14.544 16.416 9.432 11.664h6.696v7.92h-11.664l-12.384-14.904h-2.52v14.904h-9.36v-42.48h-5.904z"/><path d="m306.92 208c0-3.024015.455995-5.711988 1.368-8.064s2.207992-4.343992 3.888-5.976 3.683988-2.867996 6.012-3.708 4.931986-1.26 7.812-1.26c3.024015 0 5.723988.455995 8.1 1.368s4.379992 2.195992 6.012 3.852 2.867996 3.659988 3.708 6.012 1.26 4.943986 1.26 7.776c0 3.024015-.455995 5.711988-1.368 8.064s-2.207992 4.343992-3.888 5.976-3.683988 2.867996-6.012 3.708-4.931986 1.26-7.812 1.26c-3.024015 0-5.723988-.455995-8.1-1.368s-4.379992-2.195992-6.012-3.852-2.867996-3.659988-3.708-6.012-1.26-4.943986-1.26-7.776zm9.648 0c0 1.584008.215998 3.047993.648 4.392s1.055996 2.519995 1.872 3.528 1.799994 1.787997 2.952 2.34 2.471993.828 3.96.828c2.784014 0 5.051991-.887991 6.804-2.664s2.628-4.583981 2.628-8.424c0-3.312017-.815992-5.98799-2.448-8.028s-3.959985-3.06-6.984-3.06c-1.344007 0-2.591994.203998-3.744.612s-2.147996 1.067995-2.988 1.98-1.499998 2.063993-1.98 3.456-.72 3.07199-.72 5.04z"/><path d="m58.504 316c0-5.808029 1.5119849-10.403983 4.536-13.788s7.3439719-5.076 12.96-5.076c3.0240151 0 5.6279891.491995 7.812 1.476s3.9959928 2.315992 5.436 3.996 2.5079965 3.671988 3.204 5.976 1.044 4.775987 1.044 7.416c0 2.880014-.3839962 5.483988-1.152 7.812s-1.8959926 4.307992-3.384 5.94-3.3239891 2.891996-5.508 3.78-4.6679861 1.332-7.452 1.332c-2.9760149 0-5.567989-.491995-7.776-1.476s-4.0319928-2.315992-5.472-3.996-2.5079965-3.671988-3.204-5.976-1.044-4.775987-1.044-7.416zm5.976 0c0 1.680008.203998 3.359992.612 5.04s1.0679954 3.191993 1.98 4.536 2.0999927 2.423996 3.564 3.24 3.2519894 1.224 5.364 1.224c3.8400192 0 6.7319903-1.187988 8.676-3.564s2.916-5.867977 2.916-10.476c0-1.728009-.203998-3.419992-.612-5.076s-1.0799953-3.155993-2.016-4.5-2.1359927-2.423996-3.6-3.24-3.2519894-1.224-5.364-1.224c-3.8400192 0-6.7199904 1.175988-8.64 3.528s-2.88 5.855977-2.88 10.512z"/><path d="m183.504 316c0-5.808029 1.511985-10.403983 4.536-13.788s7.343972-5.076 12.96-5.076c3.024015 0 5.627989.491995 7.812 1.476s3.995993 2.315992 5.436 3.996 2.507997 3.671988 3.204 5.976 1.044 4.775987 1.044 7.416c0 2.880014-.383996 5.483988-1.152 7.812s-1.895993 4.307992-3.384 5.94-3.323989 2.891996-5.508 3.78-4.667986 1.332-7.452 1.332c-2.976015 0-5.567989-.491995-7.776-1.476s-4.031993-2.315992-5.472-3.996-2.507997-3.671988-3.204-5.976-1.044-4.775987-1.044-7.416zm5.976 0c0 1.680008.203998 3.359992.612 5.04s1.067995 3.191993 1.98 4.536 2.099993 2.423996 3.564 3.24 3.251989 1.224 5.364 1.224c3.840019 0 6.73199-1.187988 8.676-3.564s2.916-5.867977 2.916-10.476c0-1.728009-.203998-3.419992-.612-5.076s-1.079995-3.155993-2.016-4.5-2.135993-2.423996-3.6-3.24-3.251989-1.224-5.364-1.224c-3.840019 0-6.71999 1.175988-8.64 3.528s-2.88 5.855977-2.88 10.512z"/><path d="m308.36 308.8c0-4.08002.359996-7.739984 1.08-10.98s1.799993-5.975989 3.24-8.208 3.263989-3.935994 5.472-5.112 4.823985-1.764 7.848-1.764c3.216016 0 5.939989.575994 8.172 1.728s4.043993 2.831989 5.436 5.04 2.399997 4.931984 3.024 8.172.936 6.947979.936 11.124c0 4.08002-.359996 7.739984-1.08 10.98s-1.799993 5.975989-3.24 8.208-3.263989 3.935994-5.472 5.112-4.823985 1.764-7.848 1.764c-3.168016 0-5.867989-.635994-8.1-1.908s-4.055993-3.059988-5.472-5.364-2.435997-5.051984-3.06-8.244-.936-6.707981-.936-10.548zm29.304 0c0-2.544013-.143999-4.967988-.432-7.272l-21.384 19.512c.816004 2.736014 2.039992 4.919992 3.672 6.552s3.767987 2.448 6.408 2.448c4.224021 0 7.235991-1.751982 9.036-5.256s2.7-8.831964 2.7-15.984zm-23.328 0c0 1.200006.036 2.351994.108 3.456s.156 2.183995.252 3.24l21.456-19.44c-.816004-2.592013-2.027992-4.655992-3.636-6.192s-3.779986-2.304-6.516-2.304c-4.272021 0-7.283991 1.763982-9.036 5.292s-2.628 8.843964-2.628 15.948z"/></g></svg>

<?xml version="1.0" encoding="UTF-8"?>
<svg width="400px" height="400px" viewBox="0 0 400 400" version="1.1" xmlns="http://www.w3.org/2000/svg" xmlns:xlink="http://www.w3.org/1999/xlink">
    <!-- Generator: Sketch 46 (44423) - http://www.bohemiancoding.com/sketch -->
    <title>Artboard 2</title>
    <desc>Created with Sketch.</desc>
    <defs></defs>
    <g id="Page-1" stroke="none" stroke-width="1" fill="none" fill-rule="evenodd">
        <g id="Artboard-2" fill="#000000">
            <path d="M26,26 L26,376 L376,376 L376,26 L26,26 Z M8,8 L394,8 L394,394 L8,394 L8,8 Z" id="Rectangle-1" fill-rule="nonzero"></path>
            <path d="M58.648,110.08 L71.32,110.08 L71.32,89.92 L58.648,89.92 L58.648,82 L80.68,82 L80.68,110.08 L94,110.08 L94,118 L58.648,118 L58.648,110.08 Z M69.592,72.208 C69.592,70.7199926 70.1439945,69.4480053 71.248,68.392 C72.3520055,67.3359947 73.8879902,66.808 75.856,66.808 C77.8720101,66.808 79.479994,67.3359947 80.68,68.392 C81.880006,69.4480053 82.48,70.7199926 82.48,72.208 C82.48,73.7440077 81.880006,75.0039951 80.68,75.988 C79.479994,76.9720049 77.8720101,77.464 75.856,77.464 C73.8879902,77.464 72.3520055,76.9720049 71.248,75.988 C70.1439945,75.0039951 69.592,73.7440077 69.592,72.208 Z" id="i"></path>
            <path d="M184.44,67.6 L196.392,67.6 L196.392,105.904 C196.392,108.832015 196.883995,110.895994 197.868,112.096 C198.852005,113.296006 200.30399,113.896 202.224,113.896 C203.568007,113.896 204.935993,113.632003 206.328,113.104 C207.720007,112.575997 208.991994,111.832005 210.144,110.872 L212.736,114.688 C211.967996,115.360003 211.128005,115.959997 210.216,116.488 C209.303995,117.016003 208.368005,117.459998 207.408,117.82 C206.447995,118.180002 205.488005,118.455999 204.528,118.648 C203.567995,118.840001 202.680004,118.936 201.864,118.936 C200.087991,118.936 198.504007,118.708002 197.112,118.252 C195.719993,117.795998 194.556005,117.064005 193.62,116.056 C192.683995,115.047995 191.976002,113.716008 191.496,112.06 C191.015998,110.403992 190.776,108.352012 190.776,105.904 L190.776,72.424 L184.44,72.424 L184.44,67.6 Z" id="l"></path>
            <path d="M326.792,112.456 L329.528,112.456 L338.456,82 L344.288,82 L334.28,114.328 C333.751997,116.008008 333.212003,117.915989 332.66,120.052 C332.107997,122.188011 331.328005,124.191991 330.32,126.064 C329.311995,127.936009 327.944009,129.519994 326.216,130.816 C324.487991,132.112006 322.232014,132.76 319.448,132.76 C318.823997,132.76 318.164003,132.688001 317.468,132.544 C316.771997,132.399999 316.088003,132.220001 315.416,132.004 C314.743997,131.787999 314.120003,131.536001 313.544,131.248 C312.967997,130.959999 312.536001,130.672001 312.248,130.384 L314.264,125.2 C314.552001,125.440001 314.947997,125.679999 315.452,125.92 C315.956003,126.160001 316.507997,126.363999 317.108,126.532 C317.708003,126.700001 318.295997,126.843999 318.872,126.964 C319.448003,127.084001 319.927998,127.144 320.312,127.144 C323.912018,127.144 326.359994,124.09603 327.656,118 L322.832,118 L307.712,82 L314.192,82 L326.792,112.456 Z" id="y"></path>
            <path d="M62.176,192.808 C64.2400103,191.607994 66.567987,190.744003 69.16,190.216 C71.752013,189.687997 74.2959875,189.424 76.792,189.424 C79.2400122,189.424 81.2439922,189.807996 82.804,190.576 C84.3640078,191.344004 85.5879956,192.339994 86.476,193.564 C87.3640044,194.788006 87.9639984,196.179992 88.276,197.74 C88.5880016,199.300008 88.744,200.871992 88.744,202.456 C88.744,204.280009 88.6960005,206.22399 88.6,208.288 C88.5039995,210.35201 88.4320002,212.41599 88.384,214.48 C88.384,216.880012 88.5279986,219.159989 88.816,221.32 L93.64,221.32 L93.64,226 L84.064,226 L83.416,220.6 L83.056,220.6 C82.7679986,221.032002 82.3360029,221.583997 81.76,222.256 C81.1839971,222.928003 80.4280047,223.587997 79.492,224.236 C78.5559953,224.884003 77.4160067,225.447998 76.072,225.928 C74.7279933,226.408002 73.1440091,226.648 71.32,226.648 C67.7679822,226.648 64.9600103,225.736009 62.896,223.912 C60.8319897,222.087991 59.8,219.592016 59.8,216.424 C59.8,213.975988 60.3399946,211.936008 61.42,210.304 C62.5000054,208.671992 64.0479899,207.424004 66.064,206.56 C68.0800101,205.695996 70.5159857,205.192001 73.372,205.048 C76.2280143,204.903999 79.4319822,205.095997 82.984,205.624 C83.2240012,203.415989 83.2600008,201.580007 83.092,200.116 C82.9239992,198.651993 82.540003,197.488004 81.94,196.624 C81.339997,195.759996 80.5000054,195.148002 79.42,194.788 C78.3399946,194.427998 77.0080079,194.248 75.424,194.248 C73.2639892,194.248 71.2000098,194.547997 69.232,195.148 C67.2639902,195.748003 65.5120077,196.359997 63.976,196.984 L62.176,192.808 Z M72.76,221.824 C74.1040067,221.824 75.3519942,221.608002 76.504,221.176 C77.6560058,220.743998 78.6639957,220.192003 79.528,219.52 C80.3920043,218.847997 81.1119971,218.116004 81.688,217.324 C82.2640029,216.531996 82.6959986,215.776004 82.984,215.056 L82.984,210.016 C80.4879875,209.583998 78.1840106,209.368 76.072,209.368 C73.9599894,209.368 72.1360077,209.595998 70.6,210.052 C69.0639923,210.508002 67.8640043,211.215995 67,212.176 C66.1359957,213.136005 65.704,214.383992 65.704,215.92 C65.704,217.504008 66.2439946,218.883994 67.324,220.06 C68.4040054,221.236006 70.2159873,221.824 72.76,221.824 Z" id="a"></path>
            <polygon id="k" points="179.4 175.6 194.664 175.6 194.664 204.328 196.824 204.328 208.632 190 219.648 190 205.104 206.416 214.536 218.08 221.232 218.08 221.232 226 209.568 226 197.184 211.096 194.664 211.096 194.664 226 185.304 226 185.304 183.52 179.4 183.52"></polygon>
            <path d="M306.92,208 C306.92,204.975985 307.375995,202.288012 308.288,199.936 C309.200005,197.583988 310.495992,195.592008 312.176,193.96 C313.856008,192.327992 315.859988,191.092004 318.188,190.252 C320.516012,189.411996 323.119986,188.992 326,188.992 C329.024015,188.992 331.723988,189.447995 334.1,190.36 C336.476012,191.272005 338.479992,192.555992 340.112,194.212 C341.744008,195.868008 342.979996,197.871988 343.82,200.224 C344.660004,202.576012 345.08,205.167986 345.08,208 C345.08,211.024015 344.624005,213.711988 343.712,216.064 C342.799995,218.416012 341.504008,220.407992 339.824,222.04 C338.143992,223.672008 336.140012,224.907996 333.812,225.748 C331.483988,226.588004 328.880014,227.008 326,227.008 C322.975985,227.008 320.276012,226.552005 317.9,225.64 C315.523988,224.727995 313.520008,223.444008 311.888,221.788 C310.255992,220.131992 309.020004,218.128012 308.18,215.776 C307.339996,213.423988 306.92,210.832014 306.92,208 Z M316.568,208 C316.568,209.584008 316.783998,211.047993 317.216,212.392 C317.648002,213.736007 318.271996,214.911995 319.088,215.92 C319.904004,216.928005 320.887994,217.707997 322.04,218.26 C323.192006,218.812003 324.511993,219.088 326,219.088 C328.784014,219.088 331.051991,218.200009 332.804,216.424 C334.556009,214.647991 335.432,211.840019 335.432,208 C335.432,204.687983 334.616008,202.01201 332.984,199.972 C331.351992,197.93199 329.024015,196.912 326,196.912 C324.655993,196.912 323.408006,197.115998 322.256,197.524 C321.103994,197.932002 320.108004,198.591995 319.268,199.504 C318.427996,200.416005 317.768002,201.567993 317.288,202.96 C316.807998,204.352007 316.568,206.03199 316.568,208 Z" id="o"></path>
            <path d="M58.504,316 C58.504,310.191971 60.0159849,305.596017 63.04,302.212 C66.0640151,298.827983 70.3839719,297.136 76,297.136 C79.0240151,297.136 81.6279891,297.627995 83.812,298.612 C85.9960109,299.596005 87.8079928,300.927992 89.248,302.608 C90.6880072,304.288008 91.7559965,306.279988 92.452,308.584 C93.1480035,310.888012 93.496,313.359987 93.496,316 C93.496,318.880014 93.1120038,321.483988 92.344,323.812 C91.5759962,326.140012 90.4480074,328.119992 88.96,329.752 C87.4719926,331.384008 85.6360109,332.643996 83.452,333.532 C81.2679891,334.420004 78.7840139,334.864 76,334.864 C73.0239851,334.864 70.432011,334.372005 68.224,333.388 C66.015989,332.403995 64.1920072,331.072008 62.752,329.392 C61.3119928,327.711992 60.2440035,325.720012 59.548,323.416 C58.8519965,321.111988 58.504,318.640013 58.504,316 Z M64.48,316 C64.48,317.680008 64.683998,319.359992 65.092,321.04 C65.500002,322.720008 66.1599954,324.231993 67.072,325.576 C67.9840046,326.920007 69.1719927,327.999996 70.636,328.816 C72.1000073,329.632004 73.8879894,330.04 76,330.04 C79.8400192,330.04 82.7319903,328.852012 84.676,326.476 C86.6200097,324.099988 87.592,320.608023 87.592,316 C87.592,314.271991 87.388002,312.580008 86.98,310.924 C86.571998,309.267992 85.9000047,307.768007 84.964,306.424 C84.0279953,305.079993 82.8280073,304.000004 81.364,303.184 C79.8999927,302.367996 78.1120106,301.96 76,301.96 C72.1599808,301.96 69.2800096,303.135988 67.36,305.488 C65.4399904,307.840012 64.48,311.343977 64.48,316 Z" id="o"></path>
            <path d="M183.504,316 C183.504,310.191971 185.015985,305.596017 188.04,302.212 C191.064015,298.827983 195.383972,297.136 201,297.136 C204.024015,297.136 206.627989,297.627995 208.812,298.612 C210.996011,299.596005 212.807993,300.927992 214.248,302.608 C215.688007,304.288008 216.755997,306.279988 217.452,308.584 C218.148003,310.888012 218.496,313.359987 218.496,316 C218.496,318.880014 218.112004,321.483988 217.344,323.812 C216.575996,326.140012 215.448007,328.119992 213.96,329.752 C212.471993,331.384008 210.636011,332.643996 208.452,333.532 C206.267989,334.420004 203.784014,334.864 201,334.864 C198.023985,334.864 195.432011,334.372005 193.224,333.388 C191.015989,332.403995 189.192007,331.072008 187.752,329.392 C186.311993,327.711992 185.244003,325.720012 184.548,323.416 C183.851997,321.111988 183.504,318.640013 183.504,316 Z M189.48,316 C189.48,317.680008 189.683998,319.359992 190.092,321.04 C190.500002,322.720008 191.159995,324.231993 192.072,325.576 C192.984005,326.920007 194.171993,327.999996 195.636,328.816 C197.100007,329.632004 198.887989,330.04 201,330.04 C204.840019,330.04 207.73199,328.852012 209.676,326.476 C211.62001,324.099988 212.592,320.608023 212.592,316 C212.592,314.271991 212.388002,312.580008 211.98,310.924 C211.571998,309.267992 210.900005,307.768007 209.964,306.424 C209.027995,305.079993 207.828007,304.000004 206.364,303.184 C204.899993,302.367996 203.112011,301.96 201,301.96 C197.159981,301.96 194.28001,303.135988 192.36,305.488 C190.43999,307.840012 189.48,311.343977 189.48,316 Z" id="o"></path>
            <path d="M308.36,308.8 C308.36,304.71998 308.719996,301.060016 309.44,297.82 C310.160004,294.579984 311.239993,291.844011 312.68,289.612 C314.120007,287.379989 315.943989,285.676006 318.152,284.5 C320.360011,283.323994 322.975985,282.736 326,282.736 C329.216016,282.736 331.939989,283.311994 334.172,284.464 C336.404011,285.616006 338.215993,287.295989 339.608,289.504 C341.000007,291.712011 342.007997,294.435984 342.632,297.676 C343.256003,300.916016 343.568,304.623979 343.568,308.8 C343.568,312.88002 343.208004,316.539984 342.488,319.78 C341.767996,323.020016 340.688007,325.755989 339.248,327.988 C337.807993,330.220011 335.984011,331.923994 333.776,333.1 C331.567989,334.276006 328.952015,334.864 325.928,334.864 C322.759984,334.864 320.060011,334.228006 317.828,332.956 C315.595989,331.683994 313.772007,329.896012 312.356,327.592 C310.939993,325.287988 309.920003,322.540016 309.296,319.348 C308.671997,316.155984 308.36,312.640019 308.36,308.8 Z M337.664,308.8 C337.664,306.255987 337.520001,303.832012 337.232,301.528 L315.848,321.04 C316.664004,323.776014 317.887992,325.959992 319.52,327.592 C321.152008,329.224008 323.287987,330.04 325.928,330.04 C330.152021,330.04 333.163991,328.288018 334.964,324.784 C336.764009,321.279982 337.664,315.952036 337.664,308.8 Z M314.336,308.8 C314.336,310.000006 314.372,311.151994 314.444,312.256 C314.516,313.360006 314.6,314.439995 314.696,315.496 L336.152,296.056 C335.335996,293.463987 334.124008,291.400008 332.516,289.864 C330.907992,288.327992 328.736014,287.56 326,287.56 C321.727979,287.56 318.716009,289.323982 316.964,292.852 C315.211991,296.380018 314.336,301.695964 314.336,308.8 Z" id="0"></path>
        </g>
    </g>
</svg>
